Hatter-kde-dark/actions/24/tool-spray.svg

<?xml version="1.0" encoding="UTF-8"?>
<svg viewBox="0 0 24 24" xmlns="http://www.w3.org/2000/svg">
 <defs id="defs3051">
  <style id="current-color-scheme" type="text/css">.ColorScheme-Text {
        color:#dedede;
      }</style>
 </defs>
 <path class="ColorScheme-Text" d="m5 4a1 1 0 0 0-1 1 1 1 0 0 0 1 1 1 1 0 0 0 1-1 1 1 0 0 0-1-1zm4 0a1 1 0 0 0-1 1 1 1 0 0 0 1 1 1 1 0 0 0 1-1 1 1 0 0 0-1-1zm4 1a1 1 0 0 0-1 1 1 1 0 0 0 1 1 1 1 0 0 0 1-1 1 1 0 0 0-1-1zm3.5 0a1.5 1.5 0 0 0-1.5 1.5v1.5h-1v2h-1v10h7v-10h-1v-2h-1v-1.5a1.5 1.5 0 0 0-1.5-1.5zm-11.5 2a1 1 0 0 0-1 1 1 1 0 0 0 1 1 1 1 0 0 0 1-1 1 1 0 0 0-1-1zm4 0a1 1 0 0 0-1 1 1 1 0 0 0 1 1 1 1 0 0 0 1-1 1 1 0 0 0-1-1zm-4 3a1 1 0 0 0-1 1 1 1 0 0 0 1 1 1 1 0 0 0 1-1 1 1 0 0 0-1-1z" fill="currentColor"/>
</svg>

<svg xmlns="http://www.w3.org/2000/svg" viewBox="0 0 24 24">
  <defs id="defs3051">
    <style type="text/css" id="current-color-scheme">
      .ColorScheme-Text {
        color:#dedede;
      }
      </style>
  </defs>
 <path style="fill:currentColor;fill-opacity:1;stroke:none" 
     d="M 5 4 A 1 0.99999851 0 0 0 4 5 A 1 0.99999851 0 0 0 5 6 A 1 0.99999851 0 0 0 6 5 A 1 0.99999851 0 0 0 5 4 z M 9 4 A 1 1 0 0 0 8 5 A 1 1 0 0 0 9 6 A 1 1 0 0 0 10 5 A 1 1 0 0 0 9 4 z M 13 5 A 1 1 0 0 0 12 6 A 1 1 0 0 0 13 7 A 1 1 0 0 0 14 6 A 1 1 0 0 0 13 5 z M 16.5 5 A 1.5 1.5 0 0 0 15 6.5 L 15 8 L 14 8 L 14 10 L 13 10 L 13 20 L 20 20 L 20 10 L 19 10 L 19 8 L 18 8 L 18 6.5 A 1.5 1.5 0 0 0 16.5 5 z M 5 7 A 0.99999791 1 0 0 0 4 8 A 0.99999791 1 0 0 0 5 9 A 0.99999791 1 0 0 0 6 8 A 0.99999791 1 0 0 0 5 7 z M 9 7 A 1 1 0 0 0 8 8 A 1 1 0 0 0 9 9 A 1 1 0 0 0 10 8 A 1 1 0 0 0 9 7 z M 5 10 A 0.99999791 1 0 0 0 4 11 A 0.99999791 1 0 0 0 5 12 A 0.99999791 1 0 0 0 6 11 A 0.99999791 1 0 0 0 5 10 z "
     class="ColorScheme-Text"
     />
</svg>
